packages/swarm-icons/src/icons/line/Start Message.svg

<svg xmlns="http://www.w3.org/2000/svg" width="24" height="24" viewBox="0 0 24 24">
  <path fill="#757575" d="M11.5,10.5 L11.5,7.5 C11.5,7.22385763 11.7238576,7 12,7 C12.2761424,7 12.5,7.22385763 12.5,7.5 L12.5,10.5 L15.5,10.5 C15.7761424,10.5 16,10.7238576 16,11 C16,11.2761424 15.7761424,11.5 15.5,11.5 L12.5,11.5 L12.5,14.5 C12.5,14.7761424 12.2761424,15 12,15 C11.7238576,15 11.5,14.7761424 11.5,14.5 L11.5,11.5 L8.5,11.5 C8.22385763,11.5 8,11.2761424 8,11 C8,10.7238576 8.22385763,10.5 8.5,10.5 L11.5,10.5 Z M9.66582821,19.0857806 C10.4102391,19.2670083 11.1927068,19.3636364 12,19.3636364 C16.9705627,19.3636364 21,15.7005116 21,11.1818182 C21,6.66312477 16.9705627,3 12,3 C7.02943725,3 3,6.66312477 3,11.1818182 C3,13.5514727 4.10812486,15.6858395 5.87898753,17.1800213 L5.45454545,21 L9.66582821,19.0857806 Z M5.8683484,21.9103665 C5.16199954,22.2314341 4.37497844,21.660718 4.46066172,20.8895685 L4.82816932,17.582 C3.03410708,15.8882823 2,13.613213 2,11.1818182 C2,6.08844977 6.49729475,2 12,2 C17.5027052,2 22,6.08844977 22,11.1818182 C22,16.2751866 17.5027052,20.3636364 12,20.3636364 C11.2440642,20.3636364 10.4985774,20.2865277 9.77365094,20.135229 L5.8683484,21.9103665 Z"/>
</svg>

<svg xmlns="http://www.w3.org/2000/svg" width="24" height="24"><path fill="#757575" d="M11.5 10.5v-3a.5.5 0 111 0v3h3a.5.5 0 110 1h-3v3a.5.5 0 11-1 0v-3h-3a.5.5 0 110-1h3zm-1.834 8.586a9.862 9.862 0 002.334.278c4.97 0 9-3.663 9-8.182S16.97 3 12 3s-9 3.663-9 8.182c0 2.37 1.108 4.504 2.879 5.998L5.455 21l4.21-1.914zM5.868 21.91a1 1 0 01-1.407-1.02l.367-3.308C3.034 15.888 2 13.613 2 11.182 2 6.088 6.497 2 12 2s10 4.088 10 9.182c0 5.093-4.497 9.182-10 9.182-.756 0-1.501-.077-2.226-.229L5.868 21.91z"/></svg>
